!!!OTL: Ritter und Magd Es spielt' ein Fuerst mit einer Dam',
!!!ARE: Europa, Mitteleuropa, Deutschland (BRD), Hessen - Nassau
!!!YOR: 3, S. 51
!!    1928 gedruckt in Bad Ems
!!!SCT: Q0055L
!!!YEM: Copyright 1995, estate of Helmut Schaffrath.
**kern
*ICvox
*Ivox
*M4/4
*k[f#]
*G:
{4d
=1
4g
4g
4.g
8a
=2
4b
4b
4b}
{8g
8b
=3
4dd
4dd
4ee
4ee
=4
4.dd
8cc
4b}
{8g
8b
=5
4dd
4dd
4.ee
8dd
=6
4dd
8cc
8ee
4dd}
{8dd
8cc
=7
4b
4b
4dd
4b
=8
2a
4g}
==
!!!AGN: Ballade, Betrug, Schwangerschaft, Tod, Selbstmord, Herr und Magd
!!!ONB: ESAC (Essen Associative Code) Database: BALLADE
!!!AMT: simple quadruple
!!!AIN: vox
!!!EED: Helmut Schaffrath
!!!EEV: 1.0
*-
